X: 25
T:Lullaby
% Nottingham Music Database
S:Fred Hamer
M:3/4
L:1/4
K:D
D/2E/2|"D"FFF|"Bm"FD3/2E/2|"A7"FDE|"D"F3|"F#m"A3/2B/2A|"Em"GFE|"A"A3-|"A"A2A|
"F#m"A3/2B/2A|"Em"G3/2A/2G|"D"FDE|"Bm"F3|"A"AEF|"A7"GFE|"D"D3-|"D"DFG|
"D"A2d|"D"F2A|"D"DFB|"A"A2G|"A"CEA|"A"CEA|"A7"BAG|"D"FF"A7"G|
"D"A2d|"D"F2A|"D"DFB|"A"A2G|"A"CEA|"A"CEA|"A7"GCE|"D"D2||


